!!!!SEGMENT: pl-kk--kk-i-40--012-004_croce-giovanni--missa-decantabat-populq-agnus-dei.krn
!!!cenid: 16xx:1326
!!!COM: Croce, Giovanni
!!!COM-rismid: pe30000764
!!!CDT: 1557-1609/05/15
!!!CNT: Italian
!!!OTL: Missa Decantabat Populq – Agnus Dei
!!!PDT:
!!!AGN: Sacred; Mass
!!!SMS-siglum: PL-Kk
!!!SMS-shelfmark: Kk.I.40
!!!SMS-shelfwork: 012-004 M
!!!SMS-variant:
!!!SMS-altvar:
!!!NIFC-rismid: 1001154535
!!!URL-scan: http://repozytorium.nifc.pl/skany/pl-kk-nut--i-40
!!!ONB-nifc: UWAGA: części Mszy: 1. Kyrie, 2. Et in terra, 3. Sanctus, 4. Agnus Dei. Skan 0016-0017
**kern	**text
*I"Baſso Ripieno.	*
*I'B rip	*
*clefF4	*
*k[b-]	*
*g:	*
*M2/1	*
*met(c|)	*
=1-	=1-
!LO:TX:t=P:problem:oddech/cezura na różnej wysokości:global	!
!LO:TX:t=P:problem:znaki: B- nad BB-	!
1.G	A-
*2\right	*
!LO:TX:t=P:problem:kreska pseudotaktowa	!
2F\	-gnus
=2-	=2-
1E-X	De-
2D,\	-i
!LO:TX:t=P:problem:kreska pseudotaktowa	!
2D\	qui
=3-	=3-
1G	tol-
2G\	-lis
!LO:TX:t=P:problem:kreska pseudotaktowa	!
2F#X\	pec-
=4-	=4-
2G\	-ca-
2B-\	-ta
!LO:TX:t=P:problem:kreska pseudotaktowa	!
1A	mun-
=5-	=5-
2D,/	-di
1G	mi-
!LO:TX:t=P:problem:kreska pseudotaktowa	!
2D\	-ſe-
=6-	=6-
2Fny\	-re-
2C/	-re
1D	no-
=7-	=7-
!LO:TX:t=P:problem:kreska pseudotaktowa	!
1GG,	-bis.
00r	.
=8-	=8-
.	.
=9-	=9-
.	.
00r	.
=10-	=10-
.	.
=11-	=11-
.	.
0r	.
=12-	=12-
.	.
!LO:TX:t=P:problem:kreska pseudotaktowa	!
1r	.
=13-	=13-
2r	.
2.D\	A-
4F\	-gn(us)
2G\	De-
=14-	=14-
!LO:TX:t=P:problem:kreska pseudotaktowa	!
1D	-i
!LO:LB:g=origina	!
1r	.
=15-	=15-
2r	.
!LO:TX:t=P:problem:kreska pseudotaktowa	!
2D\	Qui
1G	tol-
=16-	=16-
2G\	-lis
!LO:TX:t=P:problem:kreska pseudotaktowa	!
2F#X\	pec-
2G\	-ca-
2E-X\	-ta
=17-	=17-
1D	mun-
!LO:TX:t=P:problem:kreska pseudotaktowa	!
1GG	-di
=18-	=18-
0r	.
=19-	=19-
!LO:TX:t=P:problem:kreska pseudotaktowa	!
1r	.
2r	.
2.D\	Do-
=20-	=20-
.	.
4Fny\	-na
!LO:TX:t=P:problem:kreska pseudotaktowa	!
2G\	no-
!LO:TX:t=P:problem:kreska pseudotaktowa	!
1D	-bis
=21-	=21-
1r	.
2r	.
!LO:TX:t=P:problem:kreska pseudotaktowa	!
2D\	Do-
=22-	=22-
2G\	-na
4G\	no-
4F\	.
4E-X\	.
4D\	.
!LO:TX:t=P:problem:kreska pseudotaktowa	!
2C/	-bis
=23-	=23-
1D	pa-
!LO:TX:t=P:problem:kreska pseudotaktowa	!
1GG	-cem
=24-	=24-
1r	.
(>1D	Do-
=25-	=25-
1.G)	.
!LO:TX:t=P:problem:kreska pseudotaktowa	!
2G\	-na
=26-	=26-
1C	no-
1GG	-bis
=27-	=27-
0D	pa-
=28-	=28-
!LO:TX:Bi:b:t=O[btulit]. ad M[aiorem]. D[ei]. G(loria)m.	!
0GG;>	-cem
==	==
*-	*-
!!!RDF**kern: > = above
!!!RDF**kern: < = below
!!!EED: Antoni Szymański
!!!EST: 2021-08-02
!!!ENC: Krzysztof Stępień
!!!END: 2021-07-05
